X:425
T: My Love and I
S: "Collection of the Dance Music of Ireland" (P. McNulty)
Z: B.Black
L: 1/8
M: 9/8
R: slip jig
K: Em
E3 G2A B3|E3 c2A B3|E3 G2A B3|A3 d2A FED :|
g3 f3 e3|E3 G2A B3|f3 e3 d3|D3 G2A B3 :|
